svgs/futureme.svg

<?xml version="1.0" encoding="UTF-8" standalone="no"?>
<!-- Created with Inkscape (http://www.inkscape.org/) -->

<svg
   width="192px"
   height="192px"
   viewBox="0 0 192 192"
   version="1.1"
   id="SVGRoot"
   sodipodi:docname="futureme.svg"
   inkscape:version="1.2.2 (732a01da63, 2022-12-09)"
   xmlns:inkscape="http://www.inkscape.org/namespaces/inkscape"
   xmlns:sodipodi="http://sodipodi.sourceforge.net/DTD/sodipodi-0.dtd"
   xmlns="http://www.w3.org/2000/svg"
   xmlns:svg="http://www.w3.org/2000/svg">
  <sodipodi:namedview
     id="namedview1330"
     pagecolor="#ffffff"
     bordercolor="#666666"
     borderopacity="1.0"
     inkscape:showpageshadow="2"
     inkscape:pageopacity="0.0"
     inkscape:pagecheckerboard="0"
     inkscape:deskcolor="#d1d1d1"
     inkscape:document-units="px"
     showgrid="false"
     inkscape:current-layer="layer1"
     inkscape:zoom="0.25"
     inkscape:cx="362.5"
     inkscape:cy="362.5" />
  <defs
     id="defs1325" />
  <g
     inkscape:label="Ebene 1"
     inkscape:groupmode="layer"
     id="layer1">
    <path
       id="path"
       d="m 34.428011,73.20623 c 0,-15.779674 17.731132,-18.319389 19.720552,-18.546292 L 52.578167,40.62781 c -11.268347,1.214127 -32.57817,9.589616 -32.57817,32.57842 v 78.16592 H 34.428011 V 114.78512 H 57.30823 V 100.68134 H 34.428011 Z"
       fill="none"
       stroke="#000000"
       stroke-width="8.00002"
       stroke-linecap="round"
       stroke-linejoin="round"
       fill-rule="evenodd" />
    <path
       id="path_1"
       d="m 144.79741,72.684754 c -8.2408,0 -15.56806,3.849386 -20.5586,9.808556 -5.31141,-6.57619 -12.97464,-9.808556 -20.38117,-9.808556 -15.005588,0 -27.202578,12.483616 -27.202578,27.829396 v 49.40105 h 13.446511 v -49.40105 c 0,-17.57101 27.497027,-22.38772 27.497027,3.15275 v 46.0413 0.207 h 13.44652 v -0.207 -46.0413 -3.15275 c 0,-17.57101 27.50836,-22.35985 27.50836,3.15275 v 46.0413 H 172 V 103.6669 C 172,82.38583 157.89286,72.684754 144.79741,72.684754 Z"
       fill="none"
       stroke="#000000"
       stroke-width="8.00002"
       stroke-linecap="round"
       stroke-linejoin="round"
       fill-rule="evenodd" />
  </g>
</svg>

<svg xmlns="http://www.w3.org/2000/svg" width="192" height="192" viewBox="0 0 192 192"><g fill="none" stroke="#000" stroke-linecap="round" stroke-linejoin="round" stroke-width="8"><path d="M34.428 73.206c0-15.78 17.731-18.32 19.72-18.546l-1.57-14.032C41.31 41.842 20 50.218 20 73.206v78.166h14.428v-36.587h22.88v-14.104h-22.88ZM144.797 72.685c-8.24 0-15.568 3.85-20.558 9.808-5.312-6.576-12.975-9.808-20.381-9.808-15.006 0-27.203 12.483-27.203 27.83v49.4h13.447v-49.4c0-17.572 27.497-22.389 27.497 3.152v46.248h13.446V100.514c0-17.57 27.508-22.36 27.508 3.153v46.041H172v-46.041c0-21.281-14.107-30.982-27.203-30.982Z"/></g></svg>
